X: 38
T: Missa De beata virgine
N: Derived from Rue1008c-Missa_De_beata_virgine-Credo.krn
C: Pierre de la Rue
%%abc-version 2.0
%%abcx-abcm2ps-target-version 5.9.1 (29 Sep 2008)
%%abc-creator hum2abc beta
%%abcx-conversion-date 2019/02/17 08:01:10
%%abc-edited-by Jesse Rodin
%%abc-edited-by Chris Gage 09-18-2012
%%abcx-initial-encoding-date 2012/09/18/
%%humdrum-veritas 1541687084
%%humdrum-veritas-data 2540260161
%%linebreak <none>
%%barnumbers 0
L: 1/4
M: 2/1
Q: 1/2=120
%%staves [1 2 3 4]
V: 1 clef=treble
V: 2 clef=treble-8
V: 3 clef=treble-8
V: 4 clef=bass
K: C
[V:1] A8- | 
[V:2] e8 | 
[V:3] A8- | 
[V:4] z8 | 
[V:1] A8- | 
[V:2] A4e4 | 
[V:3] A8 | 
[V:4] z8 | 
[V:1] A8 | 
[V:2] d4c4 | 
[V:3] D4A4 | 
[V:4] z8 | 
[V:1] D4A4 | 
[V:2] B4A4 | 
[V:3] G4F4 | 
[V:4] z8 | 
[V:1] G4F4 | 
[V:2] z8 | 
[V:3] E4D4 | 
[V:4] z8 | 
[V:1] E8 | 
[V:2] z8 | 
[V:3] A8 | 
[V:4] A,,4C,4 | 
[V:1] D8 | 
[V:2] z4A4 | 
[V:3] z8 | 
[V:4] D,8 | 
[V:1] z8 | 
[V:2] c4d4 | 
[V:3] z8 | 
[V:4] E,2F,4E,D, | 
[V:1] z8 | 
[V:2] e2f4ed | 
[V:3] z8 | 
[V:4] C,2D,2A,4 | 
[V:1] z8 | 
[V:2] c2d4^c2 | 
[V:3] E4G4 | 
[V:4] G,2F,2E,4 | 
[V:1] z4E4 | 
[V:2] d4z4 | 
[V:3] A8 | 
[V:4] D,4z4 | 
[V:1] G4A4 | 
[V:2] z8 | 
[V:3] B2c4BA | 
[V:4] z8 | 
[V:1] B2c4BA | 
[V:2] z8 | 
[V:3] G2A2e4 | 
[V:4] z8 | 
[V:1] B2A4^G2 | 
[V:2] z8 | 
[V:3] d2c2B4 | 
[V:4] z8 | 
[V:1] A8 | 
[V:2] z4e2f2 | 
[V:3] A8 | 
[V:4] z8 | 
[V:1] z8 | 
[V:2] g2f2e4 | 
[V:3] z8 | 
[V:4] E,2F,2G,2F,2 | 
[V:1] z8 | 
[V:2] e2d2c4 | 
[V:3] z8 | 
[V:4] E,8- | 
[V:1] z4B2c2 | 
[V:2] e4f2e2 | 
[V:3] B2c2d2c2 | 
[V:4] E,4z4 | 
[V:1] d2c2B4 | 
[V:2] d4d2d2 | 
[V:3] B4B2A2 | 
[V:4] z8 | 
[V:1] B2A2G4- | 
[V:2] d8 | 
[V:3] G8 | 
[V:4] z8 | 
[V:1] G8 | 
[V:2] z8 | 
[V:3] B4c4 | 
[V:4] E,2D,2C,4 | 
[V:1] B4c4 | 
[V:2] z8 | 
[V:3] B2G2A2e2- | 
[V:4] z2B,,2A,,4 | 
[V:1] B2A2A2^G2 | 
[V:2] z8 | 
[V:3] edc2B4 | 
[V:4] G,,2A,,2E,2E,2 | 
[V:1] A8 | 
[V:2] e8 | 
[V:3] A8 | 
[V:4] A,,8 | 
[V:1] z4A4- | 
[V:2] A4d2d2 | 
[V:3] z8 | 
[V:4] z8 | 
[V:1] A4D4 | 
[V:2] d2c2B2A2 | 
[V:3] z8 | 
[V:4] D,8 | 
[V:1] G2G2G2F2 | 
[V:2] B4c2A2- | 
[V:3] z8 | 
[V:4] G,,4C,2D,2 | 
[V:1] E2D2C4 | 
[V:2] A2G2A4- | 
[V:3] z4A4 | 
[V:4] C,2B,,2A,,4 | 
[V:1] D8 | 
[V:2] A4B4 | 
[V:3] D4G2G2 | 
[V:4] D,4G,,4 | 
[V:1] E6F2 | 
[V:2] c8 | 
[V:3] G2A2G2F2 | 
[V:4] C,8 | 
[V:1] G2E4D2 | 
[V:2] z8 | 
[V:3] E2A2G2F2 | 
[V:4] z8 | 
[V:1] E8 | 
[V:2] c6e2- | 
[V:3] E8 | 
[V:4] C,4A,,2C,2- | 
[V:1] z8 | 
[V:2] e2dcd4 | 
[V:3] E4G4 | 
[V:4] C,2B,,A,,B,,4 | 
[V:1] z4E4 | 
[V:2] c8 | 
[V:3] A8 | 
[V:4] A,,8 | 
[V:1] G4A4 | 
[V:2] z8 | 
[V:3] B4A4 | 
[V:4] z8 | 
[V:1] B4c4 | 
[V:2] z8 | 
[V:3] e8 | 
[V:4] z8 | 
[V:1] B2A2A2^G2 | 
[V:2] z8 | 
[V:3] d2c2B4 | 
[V:4] z8 | 
[V:1] A4z4 | 
[V:2] z8 | 
[V:3] A8 | 
[V:4] z8 | 
[V:1] B2c2d4 | 
[V:2] e2e2A4 | 
[V:3] G2G2F4 | 
[V:4] E,2E,2D,4 | 
[V:1] c4B4 | 
[V:2] e4e4 | 
[V:3] E4G4 | 
[V:4] A,,4E,4 | 
[V:1] A8 | 
[V:2] e8 | 
[V:3] [E8A8] | 
[V:4] A,,8 | 
[V:1] A8 | 
[V:2] z4E4 | 
[V:3] [C8A8] | 
[V:4] z4A,,4 | 
[V:1] D8 | 
[V:2] G8 | 
[V:3] [D8B8] | 
[V:4] G,,8 | 
[V:1] A4G2F2- | 
[V:2] E2e4d2 | 
[V:3] [C4A4]A4 | 
[V:4] A,,4C,2D,2 | 
[V:1] F2E4D2 | 
[V:2] B2c4A2 | 
[V:3] G2A2G2F2 | 
[V:4] E,2C,4D,2 | 
[V:1] E8- | 
[V:2] A8 | 
[V:3] E8- | 
[V:4] A,,8 | 
[V:1] E8 | 
[V:2] z8 | 
[V:3] E8 | 
[V:4] z4A,,4 | 
[V:1] z8 | 
[V:2] z4A4 | 
[V:3] z8 | 
[V:4] G,,2B,,2D,4 | 
[V:1] z8 | 
[V:2] G2B2d4 | 
[V:3] z4D4 | 
[V:4] E,4z4 | 
[V:1] z4D4 | 
[V:2] e4z4 | 
[V:3] C2E2G4 | 
[V:4] z8 | 
[V:1] C2E2G4 | 
[V:2] z8 | 
[V:3] A4z2B2 | 
[V:4] z4E,4 | 
[V:1] A4z2B2 | 
[V:2] z8 | 
[V:3] c3BA2G2 | 
[V:4] A,,2C,2C,2B,,2 | 
[V:1] c3BA2G2 | 
[V:2] z4z2e2 | 
[V:3] A4z4 | 
[V:4] A,,4z4 | 
[V:1] A8 | 
[V:2] f3ed2c2 | 
[V:3] z8 | 
[V:4] z8 | 
[V:1] G3FE2D2 | 
[V:2] d4G4 | 
[V:3] B4B4 | 
[V:4] G,,8 | 
[V:1] C8 | 
[V:2] E4E4 | 
[V:3] A4A4- | 
[V:4] A,,4A,,4 | 
[V:1] z4E4 | 
[V:2] E4c4 | 
[V:3] A4A4 | 
[V:4] A,,8 | 
[V:1] F6E2- | 
[V:2] d4c2c2 | 
[V:3] A6G2 | 
[V:4] D,4F,2C,2 | 
[V:1] E2D4^C2 | 
[V:2] A8- | 
[V:3] F4E4 | 
[V:4] D,4A,,4 | 
[V:1] D8 | 
[V:2] A8 | 
[V:3] D8 | 
[V:4] z8 | 
[V:1] z8 | 
[V:2] z8 | 
[V:3] z4A2G2 | 
[V:4] D,2C,2D,2E,2 | 
[V:1] A2G2A2B2 | 
[V:2] z8 | 
[V:3] A2B2c4 | 
[V:4] F,2G,2F,4 | 
[V:1] c4B4 | 
[V:2] c2c2d2e2 | 
[V:3] A4G4 | 
[V:4] z8 | 
[V:1] A8 | 
[V:2] f4f4 | 
[V:3] z8 | 
[V:4] z8 | 
[V:1] G2G2G2F2 | 
[V:2] e2e2e2A2 | 
[V:3] c2c2c2c2 | 
[V:4] C,2C,2C,2F,2 | 
[V:1] E3DC2F2- | 
[V:2] G2c2c4 | 
[V:3] c4A4 | 
[V:4] C,4F,4 | 
[V:1] F2E4D2 | 
[V:2] c4z2A2 | 
[V:3] G4F4 | 
[V:4] C,4D,4 | 
[V:1] E8 | 
[V:2] c2c2c2c2 | 
[V:3] E4z2E2 | 
[V:4] z2A,,2C,2C,2 | 
[V:1] z4z2E2 | 
[V:2] e2d2c4 | 
[V:3] G2G2A4 | 
[V:4] C,2B,,2A,,4 | 
[V:1] G2G2A2A2 | 
[V:2] d8 | 
[V:3] B4A4 | 
[V:4] G,,4D,4- | 
[V:1] D4^C4 | 
[V:2] A8 | 
[V:3] F4E4 | 
[V:4] D,4A,,4 | 
[V:1] D8 | 
[V:2] z8 | 
[V:3] D8 | 
[V:4] z8 | 
[V:1] z8 | 
[V:2] z8 | 
[V:3] z8 | 
[V:4] D,2C,2D,2E,2 | 
[V:1] z8 | 
[V:2] z8 | 
[V:3] A2G2A2B2 | 
[V:4] F,2E,2D,4 | 
[V:1] z8 | 
[V:2] z8 | 
[V:3] c2B2A4 | 
[V:4] z4D,4 | 
[V:1] z8 | 
[V:2] d4d2d2 | 
[V:3] A4A2A2 | 
[V:4] D,2D,2D,4 | 
[V:1] A4A2A2 | 
[V:2] c4d4 | 
[V:3] A4D4 | 
[V:4] A,,4z4 | 
[V:1] A4D4 | 
[V:2] c4A2B2 | 
[V:3] E4F4 | 
[V:4] A,,4D,4 | 
[V:1] E4F4 | 
[V:2] c4A4 | 
[V:3] G4z4 | 
[V:4] C,4z4 | 
[V:1] G8 | 
[V:2] G8 | 
[V:3] z8 | 
[V:4] z4C,4- | 
[V:1] G2A2G2F2 | 
[V:2] c4c2c2 | 
[V:3] z8 | 
[V:4] C,4E,2F,2 | 
[V:1] E6D2 | 
[V:2] c6A2 | 
[V:3] G2A2G2F2 | 
[V:4] C,6D,2 | 
[V:1] C8 | 
[V:2] A8 | 
[V:3] E8 | 
[V:4] A,,8 | 
[V:1] z4F4 | 
[V:2] z4d4 | 
[V:3] D8 | 
[V:4] z8 | 
[V:1] E2F2G2G2 | 
[V:2] c2d2c2B2 | 
[V:3] z8 | 
[V:4] z8 | 
[V:1] A2A2E2G2- | 
[V:2] A2A2c4 | 
[V:3] z8 | 
[V:4] z8 | 
[V:1] G2F2E4 | 
[V:2] B2A2c4 | 
[V:3] z8 | 
[V:4] z8 | 
[V:1] D4z2A2- | 
[V:2] d4z2f2- | 
[V:3] z4d2d2 | 
[V:4] z4D,4 | 
[V:1] A2A2B2A2- | 
[V:2] f2f2g2e2 | 
[V:3] d6c2 | 
[V:4] D,4G,,2A,,2 | 
[V:1] A2G4^F2 | 
[V:2] d4d4 | 
[V:3] B4A4 | 
[V:4] B,,2G,,2D,4 | 
[V:1] G4z2E2 | 
[V:2] B4z2c2 | 
[V:3] G4G4 | 
[V:4] G,,4z2C,2 | 
[V:1] E2F2E2D2 | 
[V:2] c2c2c2A2 | 
[V:3] G2A2G2F2 | 
[V:4] C,2F,2C,2D,2 | 
[V:1] C8 ||  
[V:2] A8 ||  
[V:3] E8 ||  
[V:4] A,,8 ||  
[V:1]  [K:C] [K:clef=treble][M:2/1]z8 | 
[V:2]  [K:C] [K:clef=treble-8][M:2/1]z8 | 
[V:3]  [K:C] [K:clef=treble-8][M:2/1]z4A4 | 
[V:4]  [K:C] [K:clef=bass][M:2/1]D,4C,2D,2 | 
[V:1] z4z2G2 | 
[V:2] z8 | 
[V:3] G2A2B4 | 
[V:4] E,8 | 
[V:1] A2B2c2B2 | 
[V:2] z2G2A2B2 | 
[V:3] z8 | 
[V:4] z8 | 
[V:1] A2E2A2D2 | 
[V:2] c3BA2d2 | 
[V:3] z2A2c2B2 | 
[V:4] z2A,,2A,,2B,,2 | 
[V:1] E2F2G4 | 
[V:2] c2A2B2B2 | 
[V:3] A2A2G4 | 
[V:4] C,2D,2G,,4 | 
[V:1] C8 | 
[V:2] A4c4 | 
[V:3] E4z4 | 
[V:4] A,,8 | 
[V:1] F2E2F2E2- | 
[V:2] d2c2d2c2 | 
[V:3] A2A2A4 | 
[V:4] D,2A,,2D,2A,,2 | 
[V:1] E2D4^C2 | 
[V:2] c2A2A4 | 
[V:3] G2F2E4 | 
[V:4] C,2D,2A,,4 | 
[V:1] D8 | 
[V:2] z8 | 
[V:3] D8 | 
[V:4] z4D,4- | 
[V:1] z8 | 
[V:2] z8 | 
[V:3] z4A4 | 
[V:4] D,4C,2A,,2 | 
[V:1] z8 | 
[V:2] z8 | 
[V:3] G2F2E4 | 
[V:4] B,,4C,4 | 
[V:1] z8 | 
[V:2] z8 | 
[V:3] D4A2B2 | 
[V:4] D,8 | 
[V:1] z4A2B2 | 
[V:2] z8 | 
[V:3] c2B2A4 | 
[V:4] A,,2B,,2C,2B,,2 | 
[V:1] c3BA2A2 | 
[V:2] z4c4 | 
[V:3] z4A4 | 
[V:4] A,,8 | 
[V:1] G4F2E2- | 
[V:2] d4c2B2- | 
[V:3] B4A2G2- | 
[V:4] z8 | 
[V:1] E2D4^C2 | 
[V:2] B2A4G2 | 
[V:3] G2F2E4 | 
[V:4] z8 | 
[V:1] D4z4 | 
[V:2] A2A2B2c2 | 
[V:3] D4z4 | 
[V:4] z2F,2E,2E,2 | 
[V:1] z2D2E2F2 | 
[V:2] d4z4 | 
[V:3] z2B2A2A2 | 
[V:4] D,4z4 | 
[V:1] G4z4 | 
[V:2] z2d2d4 | 
[V:3] G4z4 | 
[V:4] z2G,2F,4 | 
[V:1] z2G2G4 | 
[V:2] e8 | 
[V:3] z2c2B4 | 
[V:4] E,8 | 
[V:1] A4z4 | 
[V:2] z8 | 
[V:3] A2A2G2A2 | 
[V:4] z2D,2E,2F,2 | 
[V:1] z4d4 | 
[V:2] z8 | 
[V:3] B2c2B2G2 | 
[V:4] D,2A,,2B,,2B,,2 | 
[V:1] c3BA2c2 | 
[V:2] z8 | 
[V:3] A8 | 
[V:4] A,,8 | 
[V:1] B2B2A2A2 | 
[V:2] d4c3B | 
[V:3] z8 | 
[V:4] z8 | 
[V:1] c3BA2G2 | 
[V:2] A2A2c2B2 | 
[V:3] z8 | 
[V:4] z8 | 
[V:1] A4F4 | 
[V:2] A2A2d2d2 | 
[V:3] z8 | 
[V:4] z8 | 
[V:1] E4z4 | 
[V:2] c2c2c2c2 | 
[V:3] z4E4 | 
[V:4] A,,4A,,4- | 
[V:1] E4C2F2- | 
[V:2] A8 | 
[V:3] C4E2F2 | 
[V:4] A,,4C,2D,2- | 
[V:1] F2E2D4 | 
[V:2] z8 | 
[V:3] G2A4^G2 | 
[V:4] D,2C,2B,,4 | 
[V:1] C8 | 
[V:2] z8 | 
[V:3] A8 | 
[V:4] A,,4A,,2A,,2 | 
[V:1] z8 | 
[V:2] z8 | 
[V:3] A2E2A2B2 | 
[V:4] C,2C,2C,2B,,2 | 
[V:1] A2E2A2B2 | 
[V:2] z8 | 
[V:3] c6B2 | 
[V:4] A,,6G,,2 | 
[V:1] c6B2 | 
[V:2] e6d2 | 
[V:3] A4G4 | 
[V:4] A,,4z4 | 
[V:1] A4^G4 | 
[V:2] c4B4 | 
[V:3] A4z4 | 
[V:4] z8 | 
[V:1] A8 | 
[V:2] A8 | 
[V:3] z4A4 | 
[V:4] z4A,,4 | 
[V:1] z8 | 
[V:2] z8 | 
[V:3] D4E2F2 | 
[V:4] B,,4A,,2A,,2 | 
[V:1] z8 | 
[V:2] z8 | 
[V:3] G4G4 | 
[V:4] G,,4z2C,2- | 
[V:1] z8 | 
[V:2] z8 | 
[V:3] A4G2F2 | 
[V:4] C,2C,2C,2D,2 | 
[V:1] C4E2F2 | 
[V:2] A4c2d2 | 
[V:3] E4z4 | 
[V:4] A,,8 | 
[V:1] G3FE2D2 | 
[V:2] e3dc2B2 | 
[V:3] z8 | 
[V:4] z8 | 
[V:1] C2C2D2E2 | 
[V:2] A4A2A2 | 
[V:3] E4F2E2 | 
[V:4] A,,4D,2C,2 | 
[V:1] F4E4 | 
[V:2] d2d2c2c2 | 
[V:3] A4A2A2 | 
[V:4] D,4A,,2A,,2 | 
[V:1] F2D2E4 | 
[V:2] d2A2c4 | 
[V:3] A6G2 | 
[V:4] D,4C,4 | 
[V:1] F2D4^C2 | 
[V:2] A4A4 | 
[V:3] F4E4 | 
[V:4] D,4A,,4 | 
[V:1] D8 | 
[V:2] z8 | 
[V:3] D8 | 
[V:4] D,8 | 
[V:1] [M:3/1]z12 | 
[V:2] [M:3/1]d4d4B4 | 
[V:3] [M:3/1]z12 | 
[V:4] [M:3/1]z12 | 
[V:1] A8F4 | 
[V:2] c8d4 | 
[V:3] z12 | 
[V:4] z12 | 
[V:1] G4G4B4 | 
[V:2] e4e8 | 
[V:3] z12 | 
[V:4] z12 | 
[V:1] c4c8 | 
[V:2] A8z4 | 
[V:3] z12 | 
[V:4] z12 | 
[V:1] A8z4 | 
[V:2] A4A4G4 | 
[V:3] z12 | 
[V:4] z12 | 
[V:1] A4A4G4 | 
[V:2] A4c8 | 
[V:3] z12 | 
[V:4] z12 | 
[V:1] A4c8 | 
[V:2] A12 | 
[V:3] z12 | 
[V:4] z12 | 
[V:1] A12 | 
[V:2] z12 | 
[V:3] d8c4 | 
[V:4] z12 | 
[V:1] z12 | 
[V:2] z12 | 
[V:3] B8A4 | 
[V:4] G,8F,4 | 
[V:1] z12 | 
[V:2] z12 | 
[V:3] G4F8 | 
[V:4] E,8D,4 | 
[V:1] z12 | 
[V:2] z12 | 
[V:3] E4z4z4 | 
[V:4] C,4B,,8 | 
[V:1] [M:2/1]E4E2E2 | 
[V:2] [M:2/1]A4A2A2 | 
[V:3] [M:2/1]E4E2E2 | 
[V:4] [M:2/1]A,,2A,,2A,,2A,,2 | 
[V:1] D4C2F2- | 
[V:2] D4E2A2- | 
[V:3] G2G2A4 | 
[V:4] B,,4A,,2A,,2 | 
[V:1] FED4^C2 | 
[V:2] A2G2A4 | 
[V:3] D4E4 | 
[V:4] B,,4A,,4 | 
[V:1] D8 | 
[V:2] A8 | 
[V:3] D8 | 
[V:4] D,4z4 | 
[V:1] [M:3/1]z12 | 
[V:2] [M:3/1]z12 | 
[V:3] [M:3/1]z12 | 
[V:4] [M:3/1]D,4D,4D,4 | 
[V:1] z12 | 
[V:2] z12 | 
[V:3] A4A4A4 | 
[V:4] D,4C,8 | 
[V:1] z12 | 
[V:2] z12 | 
[V:3] A4G8 | 
[V:4] A,,4B,,4C,4 | 
[V:1] z12 | 
[V:2] z12 | 
[V:3] F4E4E4 | 
[V:4] D,4z2G,2G,4 | 
[V:1] z12 | 
[V:2] z12 | 
[V:3] D4z2d2d4 | 
[V:4] F,4F,4D,4 | 
[V:1] z12 | 
[V:2] z12 | 
[V:3] d4c4B4 | 
[V:4] F,6E,2D,4 | 
[V:1] z12 | 
[V:2] z12 | 
[V:3] c12 | 
[V:4] C,6D,2E,4 | 
[V:1] z4z4G4 | 
[V:2] z4z4B4 | 
[V:3] A4G4G4 | 
[V:4] F,8E,4 | 
[V:1] A6A2A4 | 
[V:2] A6B2c4 | 
[V:3] F12 | 
[V:4] F,12 | 
[V:1] D6E2F4 | 
[V:2] d6c2B2A2 | 
[V:3] z12 | 
[V:4] z12 | 
[V:1] G6F2E2D2 | 
[V:2] G8G4 | 
[V:3] z12 | 
[V:4] z12 | 
[V:1] C8z4 | 
[V:2] A6G2F2E2 | 
[V:3] z12 | 
[V:4] z12 | 
[V:1] F4F4F4 | 
[V:2] D4d4d4 | 
[V:3] A4A4A4 | 
[V:4] D,4D,4D,4 | 
[V:1] E4F8 | 
[V:2] c4d4d4 | 
[V:3] A4A8 | 
[V:4] A,,4D,8 | 
[V:1] G4G8 | 
[V:2] d4e6d2 | 
[V:3] G12 | 
[V:4] G,,8z4 | 
[V:1] F4E8 | 
[V:2] d8^c4 | 
[V:3] z4z4A4 | 
[V:4] z12 | 
[V:1] [M:2/1]D4z4 | 
[V:2] [M:2/1]d4z4 | 
[V:3] [M:2/1]B2c2d4 | 
[V:4] [M:2/1]z8 | 
[V:1] z2A2B2c2 | 
[V:2] f2f2f2e2 | 
[V:3] z8 | 
[V:4] D,2D,2D,2C,2 | 
[V:1] d4z4 | 
[V:2] d3cB3A | 
[V:3] d2d2d2c2 | 
[V:4] B,,3A,,G,,4- | 
[V:1] d2d2d3c | 
[V:2] G4d4- | 
[V:3] B3AG4- | 
[V:4] G,,8 | 
[V:1] B2A2G2B2- | 
[V:2] d4G2g2- | 
[V:3] G4d4- | 
[V:4] z4G,4- | 
[V:1] B2A2A3^G | 
[V:2] g2f2e4 | 
[V:3] d2c2B4 | 
[V:4] G,2A,2E,4 | 
[V:1] A8 | 
[V:2] c4z2f2 | 
[V:3] A8- | 
[V:4] A,,4D,4 | 
[V:1] z4A4 | 
[V:2] e2d2c2f2 | 
[V:3] A8 | 
[V:4] C,2B,,2A,,4 | 
[V:1] G2F2E2A2 | 
[V:2] e2d2c4 | 
[V:3] z8 | 
[V:4] z8 | 
[V:1] G2F2E2F2- | 
[V:2] B2A4d2 | 
[V:3] z8 | 
[V:4] z2D,2C,2B,,2 | 
[V:1] F2E4D2 | 
[V:2] c4B2A2 | 
[V:3] A4G2F2 | 
[V:4] A,,4z2D,2 | 
[V:1] E4z4 | 
[V:2] z2e4d2 | 
[V:3] E2A2G2F2 | 
[V:4] C,2A,,2C,2D,2 | 
[V:1] z8 | 
[V:2] c2e3cf2 | 
[V:3] E4A4 | 
[V:4] A,,8 | 
[V:1] z8 | 
[V:2] e2d4^c2 | 
[V:3] G2F2E4 | 
[V:4] z8 | 
[V:1] z8 | 
[V:2] d8 | 
[V:3] D4z2D2 | 
[V:4] z4D,4 | 
[V:1] z4A4 | 
[V:2] z4c3d | 
[V:3] E2E2F4 | 
[V:4] C,2B,,2A,,4 | 
[V:1] B4B4 | 
[V:2] efg4g2 | 
[V:3] G8- | 
[V:4] G,,8- | 
[V:1] B6A2 | 
[V:2] d2g4fe | 
[V:3] G8 | 
[V:4] G,,8 | 
[V:1] G4F4 | 
[V:2] d8 | 
[V:3] B6A2 | 
[V:4] G,,4z2D,2 | 
[V:1] E4D4 | 
[V:2] z4z2A2- | 
[V:3] G4F4 | 
[V:4] E,2C,2D,4 | 
[V:1] C4z2C2 | 
[V:2] ABc2d2A2 | 
[V:3] z2E2F2E2 | 
[V:4] A,,4z2A,,2 | 
[V:1] D4z2C2 | 
[V:2] z2B2c2A2 | 
[V:3] z4z2E2 | 
[V:4] B,,2G,,2A,,4 | 
[V:1] D2C2z2C2 | 
[V:2] z2A2G2A2 | 
[V:3] F2E2z2E2 | 
[V:4] z2A,,2B,,2A,,2 | 
[V:1] D2C2D2E2- | 
[V:2] z2A4B2- | 
[V:3] D2E2F2G2- | 
[V:4] z2A,,2D,2G,,2 | 
[V:1] E2D4^C2 | 
[V:2] B2G2A4- | 
[V:3] GFD2E4 | 
[V:4] B,,4A,,4 | 
[V:1] D8 |]  
[V:2] A8 |]  
[V:3] D8 |]  
[V:4] D,8 |]  



